assets/icons/header/checkin-inactive.svg

<svg preserveAspectRatio="none" width="100%" height="100%" overflow="visible" style="display: block;" viewBox="0 0 24 24" fill="none" xmlns="http://www.w3.org/2000/svg">
<g id="qr_code">
<mask id="mask0_0_133" style="mask-type:alpha" maskUnits="userSpaceOnUse" x="0" y="0" width="24" height="24">
<rect id="Bounding box" width="24" height="24" fill="var(--fill-0, #D9D9D9)"/>
</mask>
<g mask="url(#mask0_0_133)">
<path id="qr_code_2" d="M3.5 10.0962V4.404C3.5 4.14783 3.58667 3.93317 3.76 3.76C3.93317 3.58667 4.14783 3.5 4.404 3.5H10.0962C10.3522 3.5 10.5669 3.58667 10.7402 3.76C10.9134 3.93317 11 4.14783 11 4.404V10.0962C11 10.3522 10.9134 10.5669 10.7402 10.7402C10.5669 10.9134 10.3522 11 10.0962 11H4.404C4.14783 11 3.93317 10.9134 3.76 10.7402C3.58667 10.5669 3.5 10.3522 3.5 10.0962ZM5 9.5H9.5V5H5V9.5ZM3.5 19.596V13.9038C3.5 13.6478 3.58667 13.4331 3.76 13.2598C3.93317 13.0866 4.14783 13 4.404 13H10.0962C10.3522 13 10.5669 13.0866 10.7402 13.2598C10.9134 13.4331 11 13.6478 11 13.9038V19.596C11 19.8522 10.9134 20.0668 10.7402 20.24C10.5669 20.4133 10.3522 20.5 10.0962 20.5H4.404C4.14783 20.5 3.93317 20.4133 3.76 20.24C3.58667 20.0668 3.5 19.8522 3.5 19.596ZM5 19H9.5V14.5H5V19ZM13 10.0962V4.404C13 4.14783 13.0866 3.93317 13.2598 3.76C13.4331 3.58667 13.6478 3.5 13.9038 3.5H19.596C19.8522 3.5 20.0668 3.58667 20.24 3.76C20.4133 3.93317 20.5 4.14783 20.5 4.404V10.0962C20.5 10.3522 20.4133 10.5669 20.24 10.7402C20.0668 10.9134 19.8522 11 19.596 11H13.9038C13.6478 11 13.4331 10.9134 13.2598 10.7402C13.0866 10.5669 13 10.3522 13 10.0962ZM14.5 9.5H19V5H14.5V9.5ZM18.625 20.5V18.625H20.5V20.5H18.625ZM13 14.875V13H14.875V14.875H13ZM14.875 16.75V14.875H16.75V16.75H14.875ZM13 18.625V16.75H14.875V18.625H13ZM14.875 20.5V18.625H16.75V20.5H14.875ZM16.75 18.625V16.75H18.625V18.625H16.75ZM16.75 14.875V13H18.625V14.875H16.75ZM18.625 16.75V14.875H20.5V16.75H18.625Z" fill="var(--fill-0, #B0B0B0)"/>
</g>
</g>
</svg>

<svg xmlns="http://www.w3.org/2000/svg" fill="none" overflow="visible" preserveAspectRatio="none" style="display:block" viewBox="0 0 24 24"><mask id="a" width="24" height="24" x="0" y="0" maskUnits="userSpaceOnUse" style="mask-type:alpha"><path fill="var(--fill-0, #d9d9d9)" d="M0 0h24v24H0z"/></mask><g mask="url(#a)"><path fill="var(--fill-0, #b0b0b0)" d="M3.5 10.096V4.404q0-.383.26-.644a.87.87 0 0 1 .644-.26h5.692q.383 0 .644.26.26.26.26.644v5.692q0 .383-.26.644a.88.88 0 0 1-.644.26H4.404a.87.87 0 0 1-.644-.26.88.88 0 0 1-.26-.644M5 9.5h4.5V5H5zM3.5 19.596v-5.692q0-.384.26-.644a.87.87 0 0 1 .644-.26h5.692q.383 0 .644.26.26.26.26.644v5.692q0 .383-.26.644a.88.88 0 0 1-.644.26H4.404a.87.87 0 0 1-.644-.26.87.87 0 0 1-.26-.644M5 19h4.5v-4.5H5zm8-8.904V4.404q0-.383.26-.644a.88.88 0 0 1 .644-.26h5.692q.383 0 .644.26.26.26.26.644v5.692q0 .383-.26.644a.87.87 0 0 1-.644.26h-5.692a.88.88 0 0 1-.644-.26.88.88 0 0 1-.26-.644m1.5-.596H19V5h-4.5zm4.125 11v-1.875H20.5V20.5zM13 14.875V13h1.875v1.875zm1.875 1.875v-1.875h1.875v1.875zM13 18.625V16.75h1.875v1.875zm1.875 1.875v-1.875h1.875V20.5zm1.875-1.875V16.75h1.875v1.875zm0-3.75V13h1.875v1.875zm1.875 1.875v-1.875H20.5v1.875z"/></g></svg>
